images/logo_fon.svg

<svg width="11" height="11" viewBox="0 0 11 11" fill="none" xmlns="http://www.w3.org/2000/svg">
<path d="M8.29811 0H2.22411C0.995769 0 0 0.995769 0 2.22411V8.29811C0 9.52645 0.995769 10.5222 2.22411 10.5222H8.29811C9.52645 10.5222 10.5222 9.52645 10.5222 8.29811V2.22411C10.5222 0.995769 9.52645 0 8.29811 0Z" fill="#262626"/>
<path d="M9.06311 5.28554C9.30059 5.4178 9.4961 5.61416 9.62734 5.85221C9.76363 6.09584 9.83182 6.3794 9.83189 6.70288C9.83197 7.02636 9.76378 7.30991 9.62734 7.55354C9.49615 7.79162 9.30063 7.98799 9.06311 8.12021C8.82341 8.2548 8.55741 8.32206 8.26511 8.32199C7.83245 8.32199 7.50311 8.18558 7.27711 7.91277V8.27521H6.40589V3.93799H7.318V5.46388C7.548 5.21054 7.86371 5.08388 8.26511 5.08388C8.55741 5.08388 8.82341 5.1511 9.06311 5.28554ZM8.68311 7.33766C8.83311 7.17973 8.90815 6.96828 8.90822 6.70332C8.9083 6.43836 8.83326 6.22691 8.68311 6.06899C8.53311 5.91106 8.34115 5.83214 8.10722 5.83221C7.8733 5.83228 7.68137 5.91121 7.53145 6.06899C7.38137 6.22677 7.30634 6.43821 7.30634 6.70332C7.30634 6.96843 7.38137 7.17988 7.53145 7.33766C7.68145 7.49543 7.87337 7.57436 8.10722 7.57443C8.34108 7.57451 8.53304 7.49558 8.68311 7.33766V7.33766Z" fill="#69B32C"/>
<path d="M6.50478 5.6261C6.70537 5.88877 6.8057 6.21192 6.80578 6.59555C6.80578 7.13873 6.59467 7.55633 6.17244 7.84833C5.75022 8.14033 5.13496 8.28644 4.32667 8.28666H1.12144V2.08888H4.14956C4.90511 2.08888 5.48507 2.23351 5.88944 2.52277C6.29381 2.81203 6.49596 3.20462 6.49589 3.70055C6.49589 4.00166 6.42359 4.27022 6.279 4.50622C6.13441 4.74222 5.93226 4.92818 5.67256 5.0641C6.0267 5.1761 6.30411 5.36344 6.50478 5.6261ZM2.54711 3.1691V4.62999H3.97256C4.3267 4.62999 4.59526 4.56803 4.77822 4.4441C4.96119 4.32018 5.0527 4.13718 5.05278 3.8951C5.05278 3.65325 4.96126 3.47177 4.77822 3.35066C4.59519 3.22955 4.32663 3.16903 3.97256 3.1691H2.54711ZM5.07478 7.02055C5.26656 6.89662 5.36248 6.70481 5.36256 6.4451C5.36256 5.93155 4.98182 5.67477 4.22033 5.67477H2.54711V7.20655H4.22033C4.59811 7.20655 4.88293 7.14455 5.07478 7.02055Z" fill="white"/>
</svg>

<svg width="11" height="11" fill="none" xmlns="http://www.w3.org/2000/svg"><path d="M8.298 0H2.224A2.224 2.224 0 0 0 0 2.224v6.074c0 1.228.996 2.224 2.224 2.224h6.074a2.224 2.224 0 0 0 2.224-2.224V2.224A2.224 2.224 0 0 0 8.298 0Z" fill="#262626"/><path d="M9.063 5.286c.238.132.433.328.564.566.137.244.205.527.205.85 0 .324-.068.608-.205.852a1.449 1.449 0 0 1-.564.566 1.6 1.6 0 0 1-.798.202c-.433 0-.762-.136-.988-.41v.363h-.871V3.938h.912v1.526c.23-.253.546-.38.947-.38.292 0 .558.067.798.202Zm-.38 2.052c.15-.158.225-.37.225-.635s-.075-.476-.225-.634a.759.759 0 0 0-.576-.237.76.76 0 0 0-.576.237c-.15.158-.225.37-.225.634 0 .265.075.477.225.635a.76.76 0 0 0 .576.236.76.76 0 0 0 .576-.236Z" fill="#69B32C"/><path d="M6.505 5.626c.2.263.3.586.3.97 0 .543-.21.96-.633 1.252-.422.292-1.037.438-1.845.439H1.12V2.089H4.15c.755 0 1.335.145 1.74.434.404.289.606.682.606 1.178 0 .3-.072.57-.217.805a1.521 1.521 0 0 1-.606.558c.354.112.631.3.832.562ZM2.547 3.17V4.63h1.426c.354 0 .622-.062.805-.186.183-.124.275-.307.275-.549 0-.242-.092-.423-.275-.544-.183-.121-.451-.182-.805-.182H2.547Zm2.528 3.852c.192-.124.287-.316.288-.576 0-.513-.381-.77-1.143-.77H2.547v1.532H4.22c.378 0 .663-.062.855-.186Z" fill="#fff"/></svg>
